X:588
T: "Heimweh"
N: Z1268
O: Europa, Mitteleuropa, Steiermark
R: Natur und Welt, Liebe
M: 3/4
L: 1/8
K: Eb
GE | B,3G,G,E, | DF,B,2
AF | B,3A,A,F, | G,B,DE
GE | B,3G,G,E, | DF,B,2
AF | B,3A,A,D | E,2z2
B,E | DB,C3A | GEB3
G | CAFDB,D | EG,B,E
GB | ADC3A | GEB3
G | CAFDB,D | E2z2

@@@ Tune index: 10346
